X: 29443
T: Night Cap, The
R: jig
M: 6/8
K: Amajor
cAA eAA|fAA eAA|cAA eAA|fed cdB|
cAA eAA|fAA eAA|Ace fea|ecA A2=c:|
cee e2c|efe ecA|dff f2e|dff fed|
cee e2c|efe ecA|ddd faf|ecA A2=c:|

